!!!COM: (Joseph) Maurice Ravel
!!!OTL: [T277_Rav-w36p49m1-13]
**kern	**kern	**dynam
*grp:A	*grp:B	*
*part1	*part1	*part1
*staff2	*staff1	*
*I"Piano	*	*
*I'Pno.	*	*
*clefF4	*clefG2	*
*k[f#c#g#d#]	*k[f#c#g#d#]	*
*E:	*E:	*
*M3/4	*M3/4	*
=1	=1	=1
!!LO:TX:t=Adagio assai. [eighth]=76
*ped	*	*
8EEL	4%3r	p
8G#J 8e	.	.
8G#L 8e	.	.
8EEJ	.	.
8G#L 8e	.	.
8G#J 8e	.	.
=2	=2	=2
!	!LO:TX:b:i:t=espressivo	!
8EEL	(4g#	.
8G#J 8e	.	.
8G#L 8e	2a	.
8EEJ	.	.
8G#L 8e	.	.
8G#J 8e	.	.
=3	=3	=3
8EEL	4g#	.
8G#J 8e	.	.
8G#L 8d#	4f#	.
8EEJ	.	.
8G#L 8c#	4e	.
8G#J 8c#	.	.
=4	=4	=4
8GG#L	[4b	.
8BJ 8d#	.	.
8BL 8d#	8bL]	.
8GG#J	16aL	.
.	16bJJ	.
8BL 8d#	16cc#LL	.
.	[16bJ	.
8BJ 8d#	8bJ_	.
=5	=5	=5
8GG#L	2b_	.
8BJ 8d#	.	.
8BL 8d#	.	.
8G#J	.	.
8BL 8d#	8bL])	.
8BJ 8d#	([8bJ	.
=6	=6	=6
8G#L	4b]	.
8AJ 8e	.	.
8AL 8e	4cc#	.
8G#J	.	.
8AL 8e	4b	.
8AJ 8e	.	.
!!linebreak:original
=7	=7	=7
8F#L	[2g#	.
8AJ 8e	.	.
8AL 8e	.	.
8F#J	.	.
8AL 8e	16g#LL]	.
.	16f#	.
8AJ 8d#	16e	.
.	16f#JJ	.
=8	=8	=8
8EL	16g#LL	.
.	[16f#J	.
8AJ 8d#	8f#J_	.
8AL 8d#	4f#_	.
8EJ	.	.
8AL 8c#	8f#L])	.
8AJ 8c#	([8f#J	.
=9	=9	=9
8D#L	8f#L]	.
8AJ 8c#	8g#J	<
8AL 8c#	8bL	.
8D#J	8g#J	.
8G#L 8c#	8f#L	.
8G#J 8B	8d#J)	.
=10	=10	=10
8C#L	([4d#	.
8G#J 8B	.	.
8G#L 8B	8d#L]	.
8C#J	8eJ	.
8EL 8G#	8BL	.
8EJ 8G#	8d#J	.
=11	=11	=11
8BBL	[4c#	.
8EJ 8G#	.	.
8EL 8A	16c#LL]	[
.	16e	.
8AAJ	16f#	.
.	16aJJ)	.
8EL 8B	([4cc#i	> ]
8EJ 8B	.	.
=12	=12	=12
8GG#L	4cc#]	p
8C#J 8A	.	.
8D#L 8B	4a	.
8FF#J	.	.
8EL 8c#	4g#	.
8EJ 8c#	.	.
=13	=13	=13
8EEL\	[2f#	.
8AJ 8d#	.	.
8AL 8c#	.	.
8EJ	.	.
8AL 8B	16f#LL]	.
.	16g#	.
8AJ 8B	16f#	.
.	16g#JJ	.
=	=	=
*-	*-	*-
!!!system-decoration: [({(s1,s2)})]
!!!RDF**kern: i = marked note, color="hotpink", text="extra("
!!!EED:Jason Lee
!!!EEV:2021/10/26
